src/assets/icon/icon-social-linkedin.svg

<svg height="21" viewBox="0 0 21 21" width="21" xmlns="http://www.w3.org/2000/svg"><path d="m19.4445417 0h-17.89433337c-.85575 0-1.55020833.678125-1.55020833 1.51316667v17.97162503c0 .8362083.69445833 1.5152083 1.55020833 1.5152083h17.89433337c.8563333 0 1.5554583-.679 1.5554583-1.5152083v-17.97162503c0-.83504167-.699125-1.51316667-1.5554583-1.51316667zm-13.2162917 17.8949167h-3.11616667v-10.02137503h3.11616667zm-1.55808333-11.39162503c-.998375 0-1.80541667-.80908334-1.80541667-1.80658334 0-.99604166.80704167-1.805125 1.80541667-1.805125.99604166 0 1.805125.80908334 1.805125 1.805125 0 .9975-.80908334 1.80658334-1.805125 1.80658334zm13.22358333 11.39162503h-3.1112083v-4.8731667c0-1.1625833-.02275-2.657375-1.6190417-2.657375-1.6210833 0-1.868125 1.266125-1.868125 2.5730833v4.95775h-3.11354167v-10.02166663h2.98812497v1.3685h.0425834c.4159166-.7875 1.4320833-1.61845834 2.9475833-1.61845834 3.15175 0 3.7339167 2.07491667 3.7339167 4.77429167v5.4970417z" fill="#fff" fill-rule="evenodd" transform=""/></svg>

<?xml version="1.0" encoding="UTF-8"?>
<svg width="21px" height="21px" viewBox="0 0 21 21" version="1.1" xmlns="http://www.w3.org/2000/svg" xmlns:xlink="http://www.w3.org/1999/xlink">
    <!-- Generator: Sketch 50.2 (55047) - http://www.bohemiancoding.com/sketch -->
    <title>fi-social-linkedin copy</title>
    <desc>Created with Sketch.</desc>
    <defs></defs>
    <g id="AAC" stroke="none" stroke-width="1" fill="none" fill-rule="evenodd">
        <g id="AAC-Mobile" transform="translate(-11.000000, -6937.000000)" fill="#FFFFFF">
            <g id="footer" transform="translate(-1.000000, 6738.000000)">
                <g id="Group-16" transform="translate(12.000000, 103.000000)">
                    <g id="social-icons" transform="translate(0.000000, 96.000000)">
                        <g id="fi-social-linkedin-copy">
                            <g id="Layer_1">
                                <path d="M19.4445417,0 L1.55020833,0 C0.694458333,0 0,0.678125 0,1.51316667 L0,19.4847917 C0,20.321 0.694458333,21 1.55020833,21 L19.4445417,21 C20.300875,21 21,20.321 21,19.4847917 L21,1.51316667 C21,0.678125 20.300875,0 19.4445417,0 L19.4445417,0 Z M6.22825,17.8949167 L3.11208333,17.8949167 L3.11208333,7.87354167 L6.22825,7.87354167 L6.22825,17.8949167 L6.22825,17.8949167 Z M4.67016667,6.50329167 C3.67179167,6.50329167 2.86475,5.69420833 2.86475,4.69670833 C2.86475,3.70066667 3.67179167,2.89158333 4.67016667,2.89158333 C5.66620833,2.89158333 6.47529167,3.70066667 6.47529167,4.69670833 C6.47529167,5.69420833 5.66620833,6.50329167 4.67016667,6.50329167 L4.67016667,6.50329167 Z M17.89375,17.8949167 L14.7825417,17.8949167 L14.7825417,13.02175 C14.7825417,11.8591667 14.7597917,10.364375 13.1635,10.364375 C11.5424167,10.364375 11.295375,11.6305 11.295375,12.9374583 L11.295375,17.8952083 L8.18183333,17.8952083 L8.18183333,7.87354167 L11.1699583,7.87354167 L11.1699583,9.24204167 L11.2125417,9.24204167 C11.6284583,8.45454167 12.644625,7.62358333 14.160125,7.62358333 C17.311875,7.62358333 17.8940417,9.6985 17.8940417,12.397875 L17.8940417,17.8949167 L17.89375,17.8949167 Z" id="Shape"></path>
                            </g>
                        </g>
                    </g>
                </g>
            </g>
        </g>
    </g>
</svg>
